assets/logo.svg

<svg xmlns="http://www.w3.org/2000/svg" xmlns:xlink="http://www.w3.org/1999/xlink" viewBox="0 0 79.89317 61.04763"><defs><linearGradient id="linear-gradient" x1="31.48242" y1="38.99309" x2="71.00389" y2="-0.52838" gradientUnits="userSpaceOnUse"><stop offset="0" stop-color="#5147dd"/><stop offset="1" stop-color="#dd80dd"/></linearGradient></defs><g id="Layer_2" data-name="Layer 2"><g id="Layer_1-2" data-name="Layer 1"><path d="M79.89317,23.36207V21.101A21.09655,21.09655,0,0,0,58.7924,0H21.101A21.12486,21.12486,0,0,0,0,21.101V39.94658A21.12487,21.12487,0,0,0,21.101,61.04763H58.7866a21.10738,21.10738,0,0,0,21.10657-21.101v-2.261H47.10281v2.261A16.51211,16.51211,0,0,1,39.939,53.587a16.77677,16.77677,0,0,1-2.299-1.91574l-.00055-.00111a16.45513,16.45513,0,0,1-4.83255-10.85468,15.59492,15.59492,0,0,0,.00055-20.5827A16.57939,16.57939,0,0,1,39.9393,7.46038a16.527,16.527,0,0,1,7.169,13.64066v2.261ZM45.44541,54.86845A20.93777,20.93777,0,0,0,51.5059,42.20761H75.21932a16.59363,16.59363,0,0,1-16.43272,14.318H43.58128A21.1272,21.1272,0,0,0,45.44541,54.86845ZM29.52375,23.361a11.03932,11.03932,0,0,1,.00317,14.32184H4.52205V23.361Zm4.91849,31.50749q.47016.47011.97171.91192c-.12524.03864-.25013.07839-.3763.114q-.21321.06045-.42791.11523c-.22832.058-.45762.1122-.68839.16036-.14807.03091-.29719.05768-.44626.08446-.22118.03988-.44257.0788-.66548.10985-.19238.02635-.38637.04512-.58027.06486-.18178.01877-.363.041-.54559.05382-.38426.02622-.77056.04264-1.15994.04264H21.101A16.601,16.601,0,0,1,4.67989,42.20485H28.38471A20.93573,20.93573,0,0,0,34.44224,54.86845ZM28.384,18.83892H4.68037A16.601,16.601,0,0,1,21.101,4.52205h9.42277c.38875,0,.77444.01642,1.158.0425.18785.01311.3744.03588.56142.05548.18731.019.37485.03712.56077.06251.2316.03216.46172.07245.6915.11441.13745.02484.275.04926.41159.07769.2436.05065.48573.10792.72668.16961q.18822.048.37526.10088c.13473.03781.26793.08059.40162.12185A21.09146,21.09146,0,0,0,28.384,18.83892ZM45.446,6.17917a21.17937,21.17937,0,0,0-1.86358-1.65712h15.21A16.57972,16.57972,0,0,1,75.21932,18.84H51.51142A20.91892,20.91892,0,0,0,45.446,6.17917Z" fill="url(#linear-gradient)"/></g></g></svg>

<svg viewBox="0 0 80 62" fill="none" xmlns="http://www.w3.org/2000/svg">
<g clip-path="url(#clip0_443_2233)">
<path d="M79.8932 23.3621V21.101C79.8938 18.3298 79.3484 15.5857 78.2882 13.0254C77.228 10.465 75.6737 8.13864 73.7142 6.17912C71.7547 4.2196 69.4284 2.66532 66.868 1.60509C64.3077 0.544863 61.5636 -0.000553964 58.7924 4.22202e-07H21.101C15.5066 0.00631559 10.1432 2.23148 6.18731 6.18732C2.23148 10.1432 0.00631517 15.5066 0 21.101L0 39.9466C0.00630458 45.541 2.23146 50.9044 6.1873 54.8603C10.1431 58.8161 15.5066 61.0413 21.101 61.0476H58.7866C64.3834 61.0474 69.7509 58.8244 73.709 54.8674C77.667 50.9104 79.8915 45.5434 79.8932 39.9466V37.6856H47.1028V39.9466C47.1076 42.6313 46.4577 45.2767 45.2094 47.6536C43.9611 50.0304 42.152 52.0671 39.939 53.587C39.1171 53.0182 38.3477 52.377 37.64 51.6713L37.6395 51.6702C34.7329 48.7801 33.0096 44.9093 32.8069 40.8155C35.3064 37.9698 36.6849 34.3118 36.685 30.5242C36.6851 26.7367 35.3068 23.0786 32.8074 20.2328C32.9402 17.7002 33.6521 15.2317 34.8885 13.0175C36.1249 10.8032 37.8528 8.90206 39.9393 7.46038C42.1524 8.98069 43.9618 11.0173 45.2109 13.394C46.46 15.7708 47.1113 18.4161 47.1083 21.101V23.362L79.8932 23.3621ZM45.4454 54.8685C48.8622 51.4712 51.0027 46.9995 51.5059 42.2076H75.2193C74.6699 46.1757 72.7036 49.8112 69.6833 52.4428C66.663 55.0744 62.7926 56.5246 58.7866 56.5256H43.5813C44.2347 56.0104 44.8572 55.4571 45.4454 54.8685V54.8685ZM29.5238 23.361C31.2267 25.3581 32.1624 27.8967 32.163 30.5213C32.1636 33.146 31.229 35.6849 29.5269 37.6828H4.52205V23.361H29.5238ZM34.4422 54.8685C34.7557 55.1819 35.0796 55.4859 35.414 55.7804C35.2887 55.8191 35.1638 55.8588 35.0377 55.8944C34.8955 55.9347 34.7529 55.9731 34.6097 56.0096C34.3814 56.0676 34.1521 56.1218 33.9213 56.17C33.7733 56.2009 33.6242 56.2277 33.4751 56.2545C33.2539 56.2943 33.0325 56.3333 32.8096 56.3643C32.6172 56.3907 32.4232 56.4094 32.2293 56.4292C32.0476 56.4479 31.8663 56.4702 31.6838 56.483C31.2995 56.5092 30.9132 56.5256 30.5238 56.5256H21.101C17.097 56.5202 13.2299 55.0678 10.2123 52.4362C7.19467 49.8045 5.22985 46.1709 4.67989 42.2048H28.3847C28.8863 46.9974 31.0259 51.4702 34.4422 54.8685V54.8685ZM28.384 18.8389H4.68037C5.23118 14.8737 7.19631 11.2411 10.2138 8.6102C13.2312 5.97934 17.0977 4.52747 21.101 4.52205H30.5238C30.9125 4.52205 31.2982 4.53847 31.6818 4.56455C31.8696 4.57766 32.0562 4.60043 32.2432 4.62003C32.4305 4.63903 32.618 4.65715 32.804 4.68254C33.0356 4.7147 33.2657 4.75499 33.4955 4.79695C33.6329 4.82179 33.7705 4.84621 33.9071 4.87464C34.1507 4.92529 34.3928 4.98256 34.6337 5.04425C34.7592 5.07625 34.8843 5.10988 35.009 5.14513C35.1437 5.18294 35.2769 5.22572 35.4106 5.26698C31.4541 8.75345 28.9472 13.5956 28.384 18.8389V18.8389ZM45.446 6.17917C44.8579 5.59067 44.2356 5.03734 43.5824 4.52205H58.7924C62.7982 4.52152 66.6687 5.97129 69.6884 8.60332C72.7082 11.2354 74.6729 14.8717 75.2193 18.84H51.5114C51.0084 14.047 48.8658 9.57478 45.446 6.17917V6.17917Z" fill="#0F172A"/>
</g>
<defs>
<clipPath id="clip0_443_2233">
<rect width="79.8932" height="61.0476" fill="white"/>
</clipPath>
</defs>
</svg>
